logos/brain-knowledge-platform.svg

<?xml version="1.0" encoding="UTF-8"?>
<!DOCTYPE svg PUBLIC "-//W3C//DTD SVG 1.1//EN" "http://www.w3.org/Graphics/SVG/1.1/DTD/svg11.dtd">
<svg xmlns="http://www.w3.org/2000/svg" version="1.1" width="360px" height="108px" style="shape-rendering:geometricPrecision; text-rendering:geometricPrecision; image-rendering:optimizeQuality; fill-rule:evenodd; clip-rule:evenodd" xmlns:xlink="http://www.w3.org/1999/xlink">
<g><path style="opacity:1" fill="#111211" d="M -0.5,-0.5 C 119.5,-0.5 239.5,-0.5 359.5,-0.5C 359.5,0.166667 359.5,0.833333 359.5,1.5C 239.5,1.5 119.5,1.5 -0.5,1.5C -0.5,0.833333 -0.5,0.166667 -0.5,-0.5 Z"/></g>
<g><path style="opacity:1" fill="#272727" d="M -0.5,1.5 C 119.5,1.5 239.5,1.5 359.5,1.5C 359.5,36.8333 359.5,72.1667 359.5,107.5C 239.5,107.5 119.5,107.5 -0.5,107.5C -0.5,72.1667 -0.5,36.8333 -0.5,1.5 Z"/></g>
<g><path style="opacity:1" fill="#e0e0e0" d="M 160.5,45.5 C 161.833,45.5 163.167,45.5 164.5,45.5C 164.5,52.5 164.5,59.5 164.5,66.5C 163.167,66.5 161.833,66.5 160.5,66.5C 160.5,59.5 160.5,52.5 160.5,45.5 Z"/></g>
<g><path style="opacity:1" fill="#efefef" d="M 192.5,45.5 C 193.5,45.5 194.5,45.5 195.5,45.5C 195.5,52.5 195.5,59.5 195.5,66.5C 192.316,66.1669 188.982,66.0002 185.5,66C 182.197,62.205 181.697,58.0383 184,53.5C 186.209,51.2936 188.709,50.9602 191.5,52.5C 192.474,50.2573 192.808,47.924 192.5,45.5 Z"/></g>
<g><path style="opacity:1" fill="#e0e0e0" d="M 255.5,45.5 C 256.833,45.5 258.167,45.5 259.5,45.5C 259.5,52.5 259.5,59.5 259.5,66.5C 258.167,66.5 256.833,66.5 255.5,66.5C 255.5,59.5 255.5,52.5 255.5,45.5 Z"/></g>
<g><path style="opacity:1" fill="#efefef" d="M 291.5,45.5 C 293.167,45.5 294.833,45.5 296.5,45.5C 296.5,46.5 296.5,47.5 296.5,48.5C 294.654,48.2222 293.32,48.8888 292.5,50.5C 293.325,51.3857 294.325,51.719 295.5,51.5C 295.5,52.5 295.5,53.5 295.5,54.5C 294.5,54.5 293.5,54.5 292.5,54.5C 292.5,58.5 292.5,62.5 292.5,66.5C 291.5,66.5 290.5,66.5 289.5,66.5C 289.5,62.5 289.5,58.5 289.5,54.5C 288.5,54.5 287.5,54.5 286.5,54.5C 286.5,53.5 286.5,52.5 286.5,51.5C 287.5,51.5 288.5,51.5 289.5,51.5C 289.253,49.1417 289.919,47.1417 291.5,45.5 Z"/></g>
<g><path style="opacity:1" fill="#e0e0e0" d="M 59.5,46.5 C 60.8333,46.5 62.1667,46.5 63.5,46.5C 63.5,47.5 63.5,48.5 63.5,49.5C 61.0274,49.9118 59.6941,48.9118 59.5,46.5 Z"/></g>
<g><path style="opacity:1" fill="#e7e7e7" d="M 16.5,46.5 C 20.1817,46.3347 23.8484,46.5014 27.5,47C 30.9779,49.7065 31.3112,52.7065 28.5,56C 32.7287,59.8432 32.3954,63.1765 27.5,66C 23.8484,66.4986 20.1817,66.6653 16.5,66.5C 16.5,59.8333 16.5,53.1667 16.5,46.5 Z"/></g>
<g><path style="opacity:1" fill="#eaeaea" d="M 90.5,46.5 C 91.8333,46.5 93.1667,46.5 94.5,46.5C 94.3359,49.1873 94.5026,51.854 95,54.5C 96.8123,51.7198 98.979,49.2198 101.5,47C 102.833,46.3333 104.167,46.3333 105.5,47C 103.356,49.9789 101.022,52.8122 98.5,55.5C 100.975,59.1421 103.642,62.6421 106.5,66C 104.741,66.7975 103.074,66.6309 101.5,65.5C 100.149,62.8037 98.3157,60.4704 96,58.5C 94.6253,60.9368 94.1253,63.6035 94.5,66.5C 93.1667,66.5 91.8333,66.5 90.5,66.5C 90.5,59.8333 90.5,53.1667 90.5,46.5 Z"/></g>
<g><path style="opacity:1" fill="#e5e5e5" d="M 237.5,46.5 C 241.182,46.3347 244.848,46.5014 248.5,47C 252.292,49.0527 253.458,52.2194 252,56.5C 249.016,59.1001 245.516,60.1001 241.5,59.5C 241.5,61.8333 241.5,64.1667 241.5,66.5C 240.167,66.5 238.833,66.5 237.5,66.5C 237.5,59.8333 237.5,53.1667 237.5,46.5 Z"/></g>
<g><path style="opacity:1" fill="#ededed" d="M 279.5,48.5 C 280.5,48.5 281.5,48.5 282.5,48.5C 282.5,49.5 282.5,50.5 282.5,51.5C 283.5,51.5 284.5,51.5 285.5,51.5C 285.5,52.5 285.5,53.5 285.5,54.5C 284.5,54.5 283.5,54.5 282.5,54.5C 282.5,57.5 282.5,60.5 282.5,63.5C 283.5,63.5 284.5,63.5 285.5,63.5C 285.5,64.5 285.5,65.5 285.5,66.5C 283.712,66.7852 282.045,66.4519 280.5,65.5C 279.574,61.9062 279.241,58.2396 279.5,54.5C 278.5,54.5 277.5,54.5 276.5,54.5C 276.5,53.5 276.5,52.5 276.5,51.5C 277.5,51.5 278.5,51.5 279.5,51.5C 279.5,50.5 279.5,49.5 279.5,48.5 Z"/></g>
<g><path style="opacity:1" fill="#2f2f2f" d="M 20.5,49.5 C 22.5273,49.3379 24.5273,49.5045 26.5,50C 27.8333,51.3333 27.8333,52.6667 26.5,54C 24.5273,54.4955 22.5273,54.6621 20.5,54.5C 20.5,52.8333 20.5,51.1667 20.5,49.5 Z"/></g>
<g><path style="opacity:1" fill="#2e2e2e" d="M 241.5,49.5 C 243.527,49.3379 245.527,49.5045 247.5,50C 250.167,52 250.167,54 247.5,56C 245.527,56.4955 243.527,56.6621 241.5,56.5C 241.5,54.1667 241.5,51.8333 241.5,49.5 Z"/></g>
<g><path style="opacity:1" fill="#eaeaea" d="M 46.5,51.5 C 49.6021,51.154 52.4355,51.8207 55,53.5C 55.1998,57.7533 55.6998,61.92 56.5,66C 52.9873,66.0598 49.3207,66.0598 45.5,66C 42.7348,63.0337 43.0682,60.367 46.5,58C 48.4727,57.5045 50.4727,57.3379 52.5,57.5C 52.5,56.5 52.5,55.5 52.5,54.5C 49.6915,54.6933 47.0248,55.36 44.5,56.5C 44.3915,54.4862 45.0582,52.8195 46.5,51.5 Z"/></g>
<g><path style="opacity:1" fill="#f2f2f2" d="M 67.5,51.5 C 70.6842,51.8331 74.0175,51.9998 77.5,52C 78,52.5 78.5,53 79,53.5C 79.499,57.8206 79.6657,62.1539 79.5,66.5C 78.5,66.5 77.5,66.5 76.5,66.5C 76.665,63.1501 76.4983,59.8168 76,56.5C 74.6883,54.3424 73.0217,54.0091 71,55.5C 70.5014,59.1516 70.3347,62.8183 70.5,66.5C 69.5,66.5 68.5,66.5 67.5,66.5C 67.5,61.5 67.5,56.5 67.5,51.5 Z"/></g>
<g><path style="opacity:1" fill="#ebebeb" d="M 107.5,51.5 C 110.009,52.6748 112.509,52.6748 115,51.5C 116.711,51.4393 118.044,52.1059 119,53.5C 119.499,57.8206 119.666,62.1539 119.5,66.5C 118.5,66.5 117.5,66.5 116.5,66.5C 116.665,62.8183 116.499,59.1516 116,55.5C 114.644,54.6198 113.144,54.2865 111.5,54.5C 111.5,58.5 111.5,62.5 111.5,66.5C 110.167,66.5 108.833,66.5 107.5,66.5C 107.5,61.5 107.5,56.5 107.5,51.5 Z"/></g>
<g><path style="opacity:1" fill="#ececec" d="M 126.5,51.5 C 135.105,51.0084 138.272,55.0084 136,63.5C 132,67.5 128,67.5 124,63.5C 122.773,58.938 123.607,54.938 126.5,51.5 Z"/></g>
<g><path style="opacity:1" fill="#e4e4e4" d="M 171.5,51.5 C 178.167,50.8333 181.167,53.8333 180.5,60.5C 177.428,60.1826 174.428,60.5159 171.5,61.5C 172.171,62.9458 173.338,63.6125 175,63.5C 177.068,62.3297 178.901,62.4963 180.5,64C 175.85,67.6216 171.683,67.1216 168,62.5C 166.662,57.9597 167.829,54.293 171.5,51.5 Z"/></g>
<g><path style="opacity:1" fill="#e4e4e4" d="M 218.5,51.5 C 225.167,50.8333 228.167,53.8333 227.5,60.5C 224.428,60.1826 221.428,60.5159 218.5,61.5C 219.171,62.9458 220.338,63.6125 222,63.5C 224.068,62.3297 225.901,62.4963 227.5,64C 222.85,67.6216 218.683,67.1216 215,62.5C 213.662,57.9597 214.829,54.293 218.5,51.5 Z"/></g>
<g><path style="opacity:1" fill="#eaeaea" d="M 265.5,51.5 C 268.602,51.154 271.435,51.8207 274,53.5C 274.2,57.7533 274.7,61.92 275.5,66C 271.987,66.0598 268.321,66.0598 264.5,66C 261.735,63.0337 262.068,60.367 265.5,58C 267.473,57.5045 269.473,57.3379 271.5,57.5C 271.5,56.5 271.5,55.5 271.5,54.5C 268.692,54.6933 266.025,55.36 263.5,56.5C 263.392,54.4862 264.058,52.8195 265.5,51.5 Z"/></g>
<g><path style="opacity:1" fill="#e5e5e5" d="M 301.5,51.5 C 308.655,51.1527 311.821,54.486 311,61.5C 307.128,67.7561 302.795,68.0894 298,62.5C 296.662,57.9597 297.829,54.293 301.5,51.5 Z"/></g>
<g><path style="opacity:1" fill="#f9f9f9" d="M 314.5,51.5 C 316.833,52.8333 319.167,52.8333 321.5,51.5C 321.5,52.5 321.5,53.5 321.5,54.5C 320.178,54.33 319.011,54.6634 318,55.5C 317.501,59.1516 317.335,62.8183 317.5,66.5C 316.5,66.5 315.5,66.5 314.5,66.5C 314.5,61.5 314.5,56.5 314.5,51.5 Z"/></g>
<g><path style="opacity:1" fill="#f0f0f0" d="M 324.5,51.5 C 327.009,52.6748 329.509,52.6748 332,51.5C 333.812,51.4934 335.312,52.16 336.5,53.5C 339.371,50.887 342.205,50.887 345,53.5C 345.499,57.8206 345.666,62.1539 345.5,66.5C 344.5,66.5 343.5,66.5 342.5,66.5C 342.665,62.8183 342.499,59.1516 342,55.5C 340.333,54.1667 338.667,54.1667 337,55.5C 336.501,59.1516 336.335,62.8183 336.5,66.5C 335.5,66.5 334.5,66.5 333.5,66.5C 333.665,62.8183 333.499,59.1516 333,55.5C 331.644,54.6198 330.144,54.2865 328.5,54.5C 328.5,58.5 328.5,62.5 328.5,66.5C 327.167,66.5 325.833,66.5 324.5,66.5C 324.5,61.5 324.5,56.5 324.5,51.5 Z"/></g>
<g><path style="opacity:1" fill="#e5e5e5" d="M 34.5,51.5 C 37.1667,52.8333 39.8333,52.8333 42.5,51.5C 42.5,52.5 42.5,53.5 42.5,54.5C 41.1779,54.33 40.0113,54.6634 39,55.5C 38.5014,59.1516 38.3347,62.8183 38.5,66.5C 37.1667,66.5 35.8333,66.5 34.5,66.5C 34.5,61.5 34.5,56.5 34.5,51.5 Z"/></g>
<g><path style="opacity:1" fill="#bababa" d="M 62.5,66.5 C 61.8333,47.8333 61.1667,47.8333 60.5,66.5C 59.5128,61.6946 59.1795,56.6946 59.5,51.5C 60.8333,51.5 62.1667,51.5 63.5,51.5C 63.8205,56.6946 63.4872,61.6946 62.5,66.5 Z"/></g>
<g><path style="opacity:1" fill="#fefffe" d="M 62.5,66.5 C 61.8333,66.5 61.1667,66.5 60.5,66.5C 61.1667,47.8333 61.8333,47.8333 62.5,66.5 Z"/></g>
<g><path style="opacity:1" fill="#e7e7e7" d="M 138.5,51.5 C 139.822,51.33 140.989,51.6634 142,52.5C 143.609,62.7776 145.109,62.4442 146.5,51.5C 147.822,51.33 148.989,51.6634 150,52.5C 152.17,61.6202 153.67,61.2868 154.5,51.5C 155.978,51.238 157.311,51.5713 158.5,52.5C 156.544,56.9895 155.211,61.6562 154.5,66.5C 153.325,66.719 152.325,66.3857 151.5,65.5C 148.613,56.1681 146.613,56.5015 145.5,66.5C 143.876,66.6399 142.71,65.9733 142,64.5C 140.982,60.0927 139.815,55.7593 138.5,51.5 Z"/></g>
<g><path style="opacity:1" fill="#e9e9e9" d="M 201.5,51.5 C 204.993,51.9975 208.326,51.9975 211.5,51.5C 211.666,57.5092 211.499,63.5092 211,69.5C 207.082,73.4615 203.249,73.4615 199.5,69.5C 201.731,69.1133 204.064,68.9466 206.5,69C 208.158,68.2747 208.658,67.108 208,65.5C 200.091,67.1298 197.091,63.7964 199,55.5C 199.662,54.0161 200.496,52.6828 201.5,51.5 Z"/></g>
<g><path style="opacity:1" fill="#2e2e2e" d="M 127.5,54.5 C 133.173,54.4983 134.84,57.165 132.5,62.5C 130.833,63.8333 129.167,63.8333 127.5,62.5C 126.297,59.8401 126.297,57.1735 127.5,54.5 Z"/></g>
<g><path style="opacity:1" fill="#323232" d="M 172.5,54.5 C 174.665,54.1159 176.332,54.7826 177.5,56.5C 175.5,57.8333 173.5,57.8333 171.5,56.5C 171.863,55.8165 172.196,55.1499 172.5,54.5 Z"/></g>
<g><path style="opacity:1" fill="#2f2f2f" d="M 187.5,54.5 C 189.144,54.2865 190.644,54.6198 192,55.5C 192.769,58.0991 192.602,60.5991 191.5,63C 189.888,63.7203 188.388,63.5536 187,62.5C 186.278,59.7395 186.445,57.0728 187.5,54.5 Z"/></g>
<g><path style="opacity:1" fill="#2c2c2c" d="M 203.5,54.5 C 205.144,54.2865 206.644,54.6198 208,55.5C 208.769,58.0991 208.602,60.5991 207.5,63C 205.888,63.7203 204.388,63.5536 203,62.5C 202.278,59.7395 202.445,57.0728 203.5,54.5 Z"/></g>
<g><path style="opacity:1" fill="#323232" d="M 219.5,54.5 C 221.665,54.1159 223.332,54.7826 224.5,56.5C 222.5,57.8333 220.5,57.8333 218.5,56.5C 218.863,55.8165 219.196,55.1499 219.5,54.5 Z"/></g>
<g><path style="opacity:1" fill="#292929" d="M 302.5,54.5 C 304.144,54.2865 305.644,54.6198 307,55.5C 307.769,58.0991 307.602,60.5991 306.5,63C 304.888,63.7203 303.388,63.5536 302,62.5C 301.278,59.7395 301.445,57.0728 302.5,54.5 Z"/></g>
<g><path style="opacity:1" fill="#2a2a2a" d="M 20.5,57.5 C 23.6405,56.9082 25.9739,57.9082 27.5,60.5C 27.3918,61.4419 27.0585,62.2753 26.5,63C 24.5273,63.4955 22.5273,63.6621 20.5,63.5C 20.5,61.5 20.5,59.5 20.5,57.5 Z"/></g>
<g><path style="opacity:1" fill="#2b2b2b" d="M 48.5,59.5 C 49.8333,59.5 51.1667,59.5 52.5,59.5C 52.6162,62.9103 50.9496,64.2436 47.5,63.5C 47.4326,62.0413 47.7659,60.7079 48.5,59.5 Z"/></g>
<g><path style="opacity:1" fill="#2b2b2b" d="M 267.5,59.5 C 268.833,59.5 270.167,59.5 271.5,59.5C 271.616,62.9103 269.95,64.2436 266.5,63.5C 266.433,62.0413 266.766,60.7079 267.5,59.5 Z"/></g>
</svg>

<svg xmlns="http://www.w3.org/2000/svg" width="360" height="108" style="shape-rendering:geometricPrecision;text-rendering:geometricPrecision;image-rendering:optimizeQuality;fill-rule:evenodd;clip-rule:evenodd"><path style="opacity:1" fill="#111211" d="M-.5-.5h360v2H-.5v-2z"/><path style="opacity:1" fill="#272727" d="M-.5 1.5h360v106H-.5V1.5z"/><path style="opacity:1" fill="#e0e0e0" d="M160.5 45.5h4v21h-4v-21z"/><path style="opacity:1" fill="#efefef" d="M192.5 45.5h3v21a96.223 96.223 0 0 0-10-.5c-3.303-3.795-3.803-7.962-1.5-12.5 2.209-2.206 4.709-2.54 7.5-1a13.115 13.115 0 0 0 1-7z"/><path style="opacity:1" fill="#e0e0e0" d="M255.5 45.5h4v21h-4v-21z"/><path style="opacity:1" fill="#efefef" d="M291.5 45.5h5v3c-1.846-.278-3.18.389-4 2 .825.886 1.825 1.219 3 1v3h-3v12h-3v-12h-3v-3h3c-.247-2.358.419-4.358 2-6z"/><path style="opacity:1" fill="#e0e0e0" d="M59.5 46.5h4v3c-2.473.412-3.806-.588-4-3z"/><path style="opacity:1" fill="#e7e7e7" d="M16.5 46.5a60.94 60.94 0 0 1 11 .5c3.478 2.706 3.811 5.706 1 9 4.229 3.843 3.895 7.176-1 10a60.94 60.94 0 0 1-11 .5v-20z"/><path style="opacity:1" fill="#eaeaea" d="M90.5 46.5h4a32.437 32.437 0 0 0 .5 8 36.546 36.546 0 0 1 6.5-7.5c1.333-.667 2.667-.667 4 0a84.848 84.848 0 0 1-7 8.5 121.886 121.886 0 0 0 8 10.5c-1.759.797-3.426.63-5-.5a22.112 22.112 0 0 0-5.5-7c-1.375 2.437-1.875 5.103-1.5 8h-4v-20z"/><path style="opacity:1" fill="#e5e5e5" d="M237.5 46.5a60.94 60.94 0 0 1 11 .5c3.792 2.053 4.958 5.22 3.5 9.5-2.984 2.6-6.484 3.6-10.5 3v7h-4v-20z"/><path style="opacity:1" fill="#ededed" d="M279.5 48.5h3v3h3v3h-3v9h3v3c-1.788.285-3.455-.048-5-1a34.302 34.302 0 0 1-1-11h-3v-3h3v-3z"/><path style="opacity:1" fill="#2f2f2f" d="M20.5 49.5a18.436 18.436 0 0 1 6 .5c1.333 1.333 1.333 2.667 0 4a18.436 18.436 0 0 1-6 .5v-5z"/><path style="opacity:1" fill="#2e2e2e" d="M241.5 49.5a18.437 18.437 0 0 1 6 .5c2.667 2 2.667 4 0 6a18.437 18.437 0 0 1-6 .5v-7z"/><path style="opacity:1" fill="#eaeaea" d="M46.5 51.5c3.102-.346 5.935.32 8.5 2 .2 4.253.7 8.42 1.5 12.5-3.513.06-7.18.06-11 0-2.765-2.966-2.432-5.633 1-8a18.436 18.436 0 0 1 6-.5v-3c-2.809.193-5.475.86-8 2-.108-2.014.558-3.68 2-5z"/><path style="opacity:1" fill="#f2f2f2" d="M67.5 51.5c3.184.333 6.517.5 10 .5l1.5 1.5c.499 4.32.666 8.654.5 13h-3a50.441 50.441 0 0 0-.5-10c-1.312-2.158-2.978-2.49-5-1a60.94 60.94 0 0 0-.5 11h-3v-15z"/><path style="opacity:1" fill="#ebebeb" d="M107.5 51.5c2.509 1.175 5.009 1.175 7.5 0 1.711-.06 3.044.606 4 2a84.9 84.9 0 0 1 .5 13h-3a60.93 60.93 0 0 0-.5-11c-1.356-.88-2.856-1.214-4.5-1v12h-4v-15z"/><path style="opacity:1" fill="#ececec" d="M126.5 51.5c8.605-.492 11.772 3.508 9.5 12-4 4-8 4-12 0-1.227-4.562-.393-8.562 2.5-12z"/><path style="opacity:1" fill="#e4e4e4" d="M171.5 51.5c6.667-.667 9.667 2.333 9 9a21.12 21.12 0 0 0-9 1c.671 1.446 1.838 2.112 3.5 2 2.068-1.17 3.901-1.004 5.5.5-4.65 3.622-8.817 3.122-12.5-1.5-1.338-4.54-.171-8.207 3.5-11zM218.5 51.5c6.667-.667 9.667 2.333 9 9a21.12 21.12 0 0 0-9 1c.671 1.446 1.838 2.112 3.5 2 2.068-1.17 3.901-1.004 5.5.5-4.65 3.622-8.817 3.122-12.5-1.5-1.338-4.54-.171-8.207 3.5-11z"/><path style="opacity:1" fill="#eaeaea" d="M265.5 51.5c3.102-.346 5.935.32 8.5 2 .2 4.253.7 8.42 1.5 12.5-3.513.06-7.179.06-11 0-2.765-2.966-2.432-5.633 1-8a18.437 18.437 0 0 1 6-.5v-3c-2.808.193-5.475.86-8 2-.108-2.014.558-3.68 2-5z"/><path style="opacity:1" fill="#e5e5e5" d="M301.5 51.5c7.155-.347 10.321 2.986 9.5 10-3.872 6.256-8.205 6.59-13 1-1.338-4.54-.171-8.207 3.5-11z"/><path style="opacity:1" fill="#f9f9f9" d="M314.5 51.5c2.333 1.333 4.667 1.333 7 0v3c-1.322-.17-2.489.163-3.5 1a60.93 60.93 0 0 0-.5 11h-3v-15z"/><path style="opacity:1" fill="#f0f0f0" d="M324.5 51.5c2.509 1.175 5.009 1.175 7.5 0 1.812-.007 3.312.66 4.5 2 2.871-2.613 5.705-2.613 8.5 0a84.9 84.9 0 0 1 .5 13h-3a60.93 60.93 0 0 0-.5-11c-1.667-1.333-3.333-1.333-5 0a60.93 60.93 0 0 0-.5 11h-3a60.93 60.93 0 0 0-.5-11c-1.356-.88-2.856-1.214-4.5-1v12h-4v-15z"/><path style="opacity:1" fill="#e5e5e5" d="M34.5 51.5c2.667 1.333 5.333 1.333 8 0v3c-1.322-.17-2.489.163-3.5 1a60.94 60.94 0 0 0-.5 11h-4v-15z"/><path style="opacity:1" fill="#bababa" d="M62.5 66.5c-.667-18.667-1.333-18.667-2 0-.987-4.805-1.32-9.805-1-15h4c.32 5.195-.013 10.195-1 15z"/><path style="opacity:1" fill="#fefffe" d="M62.5 66.5h-2c.667-18.667 1.333-18.667 2 0z"/><path style="opacity:1" fill="#e7e7e7" d="M138.5 51.5c1.322-.17 2.489.163 3.5 1 1.609 10.278 3.109 9.944 4.5-1 1.322-.17 2.489.163 3.5 1 2.17 9.12 3.67 8.787 4.5-1 1.478-.262 2.811.071 4 1a54.836 54.836 0 0 0-4 14c-1.175.219-2.175-.114-3-1-2.887-9.332-4.887-8.998-6 1-1.624.14-2.79-.527-3.5-2a185.805 185.805 0 0 0-3.5-13z"/><path style="opacity:1" fill="#e9e9e9" d="M201.5 51.5c3.493.498 6.826.498 10 0 .166 6.01-.001 12.01-.5 18-3.918 3.962-7.751 3.962-11.5 0a36.266 36.266 0 0 1 7-.5c1.658-.725 2.158-1.892 1.5-3.5-7.909 1.63-10.909-1.704-9-10a16.578 16.578 0 0 1 2.5-4z"/><path style="opacity:1" fill="#2e2e2e" d="M127.5 54.5c5.673-.002 7.34 2.665 5 8-1.667 1.333-3.333 1.333-5 0-1.203-2.66-1.203-5.327 0-8z"/><path style="opacity:1" fill="#323232" d="M172.5 54.5c2.165-.384 3.832.283 5 2-2 1.333-4 1.333-6 0 .363-.684.696-1.35 1-2z"/><path style="opacity:1" fill="#2f2f2f" d="M187.5 54.5c1.644-.214 3.144.12 4.5 1 .769 2.6.602 5.1-.5 7.5-1.612.72-3.112.554-4.5-.5-.722-2.76-.555-5.427.5-8z"/><path style="opacity:1" fill="#2c2c2c" d="M203.5 54.5c1.644-.214 3.144.12 4.5 1 .769 2.6.602 5.1-.5 7.5-1.612.72-3.112.554-4.5-.5-.722-2.76-.555-5.427.5-8z"/><path style="opacity:1" fill="#323232" d="M219.5 54.5c2.165-.384 3.832.283 5 2-2 1.333-4 1.333-6 0 .363-.684.696-1.35 1-2z"/><path style="opacity:1" fill="#292929" d="M302.5 54.5c1.644-.214 3.144.12 4.5 1 .769 2.6.602 5.1-.5 7.5-1.612.72-3.112.554-4.5-.5-.722-2.76-.555-5.427.5-8z"/><path style="opacity:1" fill="#2a2a2a" d="M20.5 57.5c3.14-.592 5.474.408 7 3a4.938 4.938 0 0 1-1 2.5 18.436 18.436 0 0 1-6 .5v-6z"/><path style="opacity:1" fill="#2b2b2b" d="M48.5 59.5h4c.116 3.41-1.55 4.744-5 4-.067-1.459.266-2.792 1-4zM267.5 59.5h4c.116 3.41-1.55 4.744-5 4-.067-1.459.266-2.792 1-4z"/></svg>
